images/286762.svg

<?xml version="1.0" encoding="UTF-8"?>
<svg xmlns="http://www.w3.org/2000/svg" xmlns:xlink="http://www.w3.org/1999/xlink" width="300pt" height="300pt" viewBox="0 0 300 300" version="1.1">
<defs>
<g>
<symbol overflow="visible" id="glyph0-0">
<path style="stroke:none;" d="M 0.546875 1.9375 L 0.546875 -7.75 L 6.046875 -7.75 L 6.046875 1.9375 Z M 1.171875 1.328125 L 5.4375 1.328125 L 5.4375 -7.140625 L 1.171875 -7.140625 Z M 1.171875 1.328125 "/>
</symbol>
<symbol overflow="visible" id="glyph0-1">
<path style="stroke:none;" d="M 1.078125 -8.015625 L 2.171875 -8.015625 L 2.171875 -4.734375 L 6.109375 -4.734375 L 6.109375 -8.015625 L 7.1875 -8.015625 L 7.1875 0 L 6.109375 0 L 6.109375 -3.8125 L 2.171875 -3.8125 L 2.171875 0 L 1.078125 0 Z M 1.078125 -8.015625 "/>
</symbol>
<symbol overflow="visible" id="glyph0-2">
<path style="stroke:none;" d="M 4.328125 -7.28125 C 3.546875 -7.28125 2.921875 -6.984375 2.453125 -6.390625 C 1.992188 -5.804688 1.765625 -5.007812 1.765625 -4 C 1.765625 -2.988281 1.992188 -2.1875 2.453125 -1.59375 C 2.921875 -1.007812 3.546875 -0.71875 4.328125 -0.71875 C 5.117188 -0.71875 5.742188 -1.007812 6.203125 -1.59375 C 6.660156 -2.1875 6.890625 -2.988281 6.890625 -4 C 6.890625 -5.007812 6.660156 -5.804688 6.203125 -6.390625 C 5.742188 -6.984375 5.117188 -7.28125 4.328125 -7.28125 Z M 4.328125 -8.171875 C 5.453125 -8.171875 6.351562 -7.789062 7.03125 -7.03125 C 7.707031 -6.28125 8.046875 -5.269531 8.046875 -4 C 8.046875 -2.738281 7.707031 -1.726562 7.03125 -0.96875 C 6.351562 -0.21875 5.453125 0.15625 4.328125 0.15625 C 3.203125 0.15625 2.300781 -0.21875 1.625 -0.96875 C 0.957031 -1.71875 0.625 -2.726562 0.625 -4 C 0.625 -5.269531 0.957031 -6.28125 1.625 -7.03125 C 2.300781 -7.789062 3.203125 -8.171875 4.328125 -8.171875 Z M 4.328125 -8.171875 "/>
</symbol>
<symbol overflow="visible" id="glyph0-3">
<path style="stroke:none;" d="M 1.078125 -8.015625 L 2.546875 -8.015625 L 6.09375 -1.3125 L 6.09375 -8.015625 L 7.15625 -8.015625 L 7.15625 0 L 5.6875 0 L 2.125 -6.703125 L 2.125 0 L 1.078125 0 Z M 1.078125 -8.015625 "/>
</symbol>
</g>
</defs>
<g id="surface8741">
<rect x="0" y="0" width="300" height="300" style="fill:rgb(100%,100%,100%);fill-opacity:1;stroke:none;"/>
<path style="fill:none;stroke-width:1.2;stroke-linecap:butt;stroke-linejoin:miter;stroke:rgb(100%,0%,0%);stroke-opacity:1;stroke-miterlimit:10;" d="M 125.617188 232.746094 L 132.605469 221.484375 "/>
<path style="fill:none;stroke-width:1.2;stroke-linecap:butt;stroke-linejoin:miter;stroke:rgb(0%,0%,0%);stroke-opacity:1;stroke-miterlimit:10;" d="M 132.605469 221.484375 L 139.589844 210.226562 "/>
<path style=" stroke:none;fill-rule:nonzero;fill:rgb(100%,100%,100%);fill-opacity:1;" d="M 108.617188 226.246094 L 125.617188 226.246094 L 125.617188 239.246094 L 108.617188 239.246094 Z M 108.617188 226.246094 "/>
<g style="fill:rgb(100%,0%,0%);fill-opacity:1;">
  <use xlink:href="#glyph0-1" x="108.617188" y="236.147461"/>
  <use xlink:href="#glyph0-2" x="116.641602" y="236.147461"/>
</g>
<path style="fill:none;stroke-width:1.2;stroke-linecap:butt;stroke-linejoin:miter;stroke:rgb(0%,0%,0%);stroke-opacity:1;stroke-miterlimit:10;" d="M 139.589844 210.226562 L 114.988281 200.375 "/>
<path style="fill:none;stroke-width:1.2;stroke-linecap:butt;stroke-linejoin:miter;stroke:rgb(0%,0%,0%);stroke-opacity:1;stroke-miterlimit:10;" d="M 139.589844 210.226562 L 159.34375 227.894531 "/>
<path style="fill:none;stroke-width:1.2;stroke-linecap:butt;stroke-linejoin:miter;stroke:rgb(0%,0%,0%);stroke-opacity:1;stroke-miterlimit:10;" d="M 160.421875 193.84375 L 139.589844 210.226562 "/>
<path style="fill:none;stroke-width:1.2;stroke-linecap:butt;stroke-linejoin:miter;stroke:rgb(0%,0%,0%);stroke-opacity:1;stroke-miterlimit:10;" d="M 114.988281 200.375 L 111.214844 174.144531 "/>
<path style="fill:none;stroke-width:1.2;stroke-linecap:butt;stroke-linejoin:miter;stroke:rgb(0%,0%,0%);stroke-opacity:1;stroke-miterlimit:10;" d="M 111.214844 174.144531 L 132.046875 157.761719 "/>
<path style="fill:none;stroke-width:1.2;stroke-linecap:butt;stroke-linejoin:miter;stroke:rgb(0%,0%,0%);stroke-opacity:1;stroke-miterlimit:10;" d="M 132.046875 157.761719 L 130.160156 144.644531 "/>
<path style="fill:none;stroke-width:1.2;stroke-linecap:butt;stroke-linejoin:miter;stroke:rgb(0%,0%,100%);stroke-opacity:1;stroke-miterlimit:10;" d="M 130.160156 144.644531 L 128.273438 131.527344 "/>
<path style="fill:none;stroke-width:1.2;stroke-linecap:butt;stroke-linejoin:miter;stroke:rgb(0%,0%,0%);stroke-opacity:1;stroke-miterlimit:10;" d="M 132.046875 157.761719 L 156.652344 167.609375 "/>
<path style="fill:none;stroke-width:1.2;stroke-linecap:butt;stroke-linejoin:miter;stroke:rgb(0%,0%,100%);stroke-opacity:1;stroke-miterlimit:10;" d="M 128.273438 131.527344 L 137.777344 122.292969 "/>
<path style="fill:none;stroke-width:1.2;stroke-linecap:butt;stroke-linejoin:miter;stroke:rgb(0%,0%,0%);stroke-opacity:1;stroke-miterlimit:10;" d="M 137.777344 122.292969 L 147.28125 113.054688 "/>
<path style="fill:none;stroke-width:1.2;stroke-linecap:butt;stroke-linejoin:miter;stroke:rgb(0%,0%,0%);stroke-opacity:1;stroke-miterlimit:10;" d="M 104.835938 119.160156 L 116.554688 125.34375 "/>
<path style="fill:none;stroke-width:1.2;stroke-linecap:butt;stroke-linejoin:miter;stroke:rgb(0%,0%,100%);stroke-opacity:1;stroke-miterlimit:10;" d="M 116.554688 125.34375 L 128.273438 131.527344 "/>
<path style=" stroke:none;fill-rule:nonzero;fill:rgb(100%,100%,100%);fill-opacity:1;" d="M 124.273438 125.027344 L 132.273438 125.027344 L 132.273438 138.027344 L 124.273438 138.027344 Z M 124.273438 125.027344 "/>
<g style="fill:rgb(0%,0%,100%);fill-opacity:1;">
  <use xlink:href="#glyph0-3" x="124.273438" y="134.928711"/>
</g>
<path style="fill:none;stroke-width:1.2;stroke-linecap:butt;stroke-linejoin:miter;stroke:rgb(0%,0%,0%);stroke-opacity:1;stroke-miterlimit:10;" d="M 147.28125 113.054688 L 160.503906 113.9375 "/>
<path style="fill:none;stroke-width:1.2;stroke-linecap:butt;stroke-linejoin:miter;stroke:rgb(0%,0%,100%);stroke-opacity:1;stroke-miterlimit:10;" d="M 160.503906 113.9375 L 173.726562 114.820312 "/>
<path style="fill:none;stroke-width:1.2;stroke-linecap:butt;stroke-linejoin:miter;stroke:rgb(0%,0%,0%);stroke-opacity:1;stroke-miterlimit:10;" d="M 150.339844 107.011719 L 160.917969 107.714844 "/>
<path style="fill:none;stroke-width:1.2;stroke-linecap:butt;stroke-linejoin:miter;stroke:rgb(0%,0%,100%);stroke-opacity:1;stroke-miterlimit:10;" d="M 160.917969 107.714844 L 171.496094 108.421875 "/>
<path style="fill:none;stroke-width:1.2;stroke-linecap:butt;stroke-linejoin:miter;stroke:rgb(0%,0%,0%);stroke-opacity:1;stroke-miterlimit:10;" d="M 135.585938 89.273438 L 147.28125 113.054688 "/>
<path style="fill:none;stroke-width:1.2;stroke-linecap:butt;stroke-linejoin:miter;stroke:rgb(0%,0%,100%);stroke-opacity:1;stroke-miterlimit:10;" d="M 173.726562 114.820312 L 181.101562 103.8125 "/>
<path style="fill:none;stroke-width:1.2;stroke-linecap:butt;stroke-linejoin:miter;stroke:rgb(0%,0%,0%);stroke-opacity:1;stroke-miterlimit:10;" d="M 181.101562 103.8125 L 188.476562 92.800781 "/>
<path style=" stroke:none;fill-rule:nonzero;fill:rgb(100%,100%,100%);fill-opacity:1;" d="M 169.726562 108.320312 L 177.726562 108.320312 L 177.726562 121.320312 L 169.726562 121.320312 Z M 169.726562 108.320312 "/>
<g style="fill:rgb(0%,0%,100%);fill-opacity:1;">
  <use xlink:href="#glyph0-3" x="169.726562" y="118.22168"/>
</g>
<path style="fill:none;stroke-width:1.2;stroke-linecap:butt;stroke-linejoin:miter;stroke:rgb(0%,0%,0%);stroke-opacity:1;stroke-miterlimit:10;" d="M 188.476562 92.800781 L 182.628906 80.910156 "/>
<path style="fill:none;stroke-width:1.2;stroke-linecap:butt;stroke-linejoin:miter;stroke:rgb(0%,0%,100%);stroke-opacity:1;stroke-miterlimit:10;" d="M 182.628906 80.910156 L 176.78125 69.019531 "/>
<path style="fill:none;stroke-width:1.2;stroke-linecap:butt;stroke-linejoin:miter;stroke:rgb(0%,0%,0%);stroke-opacity:1;stroke-miterlimit:10;" d="M 181.710938 93.175781 L 177.03125 83.660156 "/>
<path style="fill:none;stroke-width:1.2;stroke-linecap:butt;stroke-linejoin:miter;stroke:rgb(0%,0%,100%);stroke-opacity:1;stroke-miterlimit:10;" d="M 177.03125 83.660156 L 172.355469 74.148438 "/>
<path style="fill:none;stroke-width:1.2;stroke-linecap:butt;stroke-linejoin:miter;stroke:rgb(0%,0%,0%);stroke-opacity:1;stroke-miterlimit:10;" d="M 188.476562 92.800781 L 201.695312 93.683594 "/>
<path style="fill:none;stroke-width:1.2;stroke-linecap:butt;stroke-linejoin:miter;stroke:rgb(0%,0%,100%);stroke-opacity:1;stroke-miterlimit:10;" d="M 201.695312 93.683594 L 214.917969 94.566406 "/>
<path style="fill:none;stroke-width:1.2;stroke-linecap:butt;stroke-linejoin:miter;stroke:rgb(0%,0%,100%);stroke-opacity:1;stroke-miterlimit:10;" d="M 176.78125 69.019531 L 163.558594 68.136719 "/>
<path style="fill:none;stroke-width:1.2;stroke-linecap:butt;stroke-linejoin:miter;stroke:rgb(0%,0%,0%);stroke-opacity:1;stroke-miterlimit:10;" d="M 163.558594 68.136719 L 150.335938 67.253906 "/>
<path style=" stroke:none;fill-rule:nonzero;fill:rgb(100%,100%,100%);fill-opacity:1;" d="M 172.78125 62.519531 L 180.78125 62.519531 L 180.78125 75.519531 L 172.78125 75.519531 Z M 172.78125 62.519531 "/>
<g style="fill:rgb(0%,0%,100%);fill-opacity:1;">
  <use xlink:href="#glyph0-3" x="172.78125" y="72.420898"/>
</g>
<path style="fill:none;stroke-width:1.2;stroke-linecap:butt;stroke-linejoin:miter;stroke:rgb(0%,0%,0%);stroke-opacity:1;stroke-miterlimit:10;" d="M 150.335938 67.253906 L 135.585938 89.273438 "/>
<path style="fill:none;stroke-width:1.2;stroke-linecap:butt;stroke-linejoin:miter;stroke:rgb(0%,0%,0%);stroke-opacity:1;stroke-miterlimit:10;" d="M 154.042969 72.925781 L 142.242188 90.542969 "/>
<path style="fill:none;stroke-width:1.2;stroke-linecap:butt;stroke-linejoin:miter;stroke:rgb(0%,0%,0%);stroke-opacity:1;stroke-miterlimit:10;" d="M 135.585938 89.273438 L 109.355469 93.046875 "/>
<path style="fill:none;stroke-width:1.2;stroke-linecap:butt;stroke-linejoin:miter;stroke:rgb(0%,0%,0%);stroke-opacity:1;stroke-miterlimit:10;" d="M 109.355469 93.046875 L 104.835938 119.160156 "/>
<path style="fill:none;stroke-width:1.2;stroke-linecap:butt;stroke-linejoin:miter;stroke:rgb(0%,0%,0%);stroke-opacity:1;stroke-miterlimit:10;" d="M 115.046875 96.71875 L 111.433594 117.613281 "/>
<path style="fill:none;stroke-width:1.2;stroke-linecap:butt;stroke-linejoin:miter;stroke:rgb(0%,0%,0%);stroke-opacity:1;stroke-miterlimit:10;" d="M 104.835938 119.160156 L 81.050781 130.851562 "/>
<path style="fill:none;stroke-width:1.2;stroke-linecap:butt;stroke-linejoin:miter;stroke:rgb(0%,0%,0%);stroke-opacity:1;stroke-miterlimit:10;" d="M 77.941406 130.644531 L 77.058594 143.867188 "/>
<path style="fill:none;stroke-width:1.2;stroke-linecap:butt;stroke-linejoin:miter;stroke:rgb(100%,0%,0%);stroke-opacity:1;stroke-miterlimit:10;" d="M 77.058594 143.867188 L 76.175781 157.089844 "/>
<path style="fill:none;stroke-width:1.2;stroke-linecap:butt;stroke-linejoin:miter;stroke:rgb(0%,0%,0%);stroke-opacity:1;stroke-miterlimit:10;" d="M 84.164062 131.0625 L 83.28125 144.28125 "/>
<path style="fill:none;stroke-width:1.2;stroke-linecap:butt;stroke-linejoin:miter;stroke:rgb(100%,0%,0%);stroke-opacity:1;stroke-miterlimit:10;" d="M 83.28125 144.28125 L 82.398438 157.503906 "/>
<path style="fill:none;stroke-width:1.2;stroke-linecap:butt;stroke-linejoin:miter;stroke:rgb(0%,0%,0%);stroke-opacity:1;stroke-miterlimit:10;" d="M 81.050781 130.851562 L 70.042969 123.476562 "/>
<path style="fill:none;stroke-width:1.2;stroke-linecap:butt;stroke-linejoin:miter;stroke:rgb(0%,0%,100%);stroke-opacity:1;stroke-miterlimit:10;" d="M 70.042969 123.476562 L 59.035156 116.101562 "/>
<path style=" stroke:none;fill-rule:nonzero;fill:rgb(100%,100%,100%);fill-opacity:1;" d="M 75.289062 150.796875 L 84.289062 150.796875 L 84.289062 163.796875 L 75.289062 163.796875 Z M 75.289062 150.796875 "/>
<g style="fill:rgb(100%,0%,0%);fill-opacity:1;">
  <use xlink:href="#glyph0-2" x="75.289062" y="160.698242"/>
</g>
<path style="fill:none;stroke-width:1.2;stroke-linecap:butt;stroke-linejoin:miter;stroke:rgb(0%,0%,100%);stroke-opacity:1;stroke-miterlimit:10;" d="M 59.035156 116.101562 L 47.140625 121.949219 "/>
<path style="fill:none;stroke-width:1.2;stroke-linecap:butt;stroke-linejoin:miter;stroke:rgb(0%,0%,0%);stroke-opacity:1;stroke-miterlimit:10;" d="M 47.140625 121.949219 L 35.25 127.796875 "/>
<path style="fill:none;stroke-width:1.2;stroke-linecap:butt;stroke-linejoin:miter;stroke:rgb(0%,0%,100%);stroke-opacity:1;stroke-miterlimit:10;" d="M 59.035156 116.101562 L 59.914062 102.882812 "/>
<path style="fill:none;stroke-width:1.2;stroke-linecap:butt;stroke-linejoin:miter;stroke:rgb(0%,0%,0%);stroke-opacity:1;stroke-miterlimit:10;" d="M 59.914062 102.882812 L 60.796875 89.660156 "/>
<path style=" stroke:none;fill-rule:nonzero;fill:rgb(100%,100%,100%);fill-opacity:1;" d="M 55.035156 109.601562 L 63.035156 109.601562 L 63.035156 122.601562 L 55.035156 122.601562 Z M 55.035156 109.601562 "/>
<g style="fill:rgb(0%,0%,100%);fill-opacity:1;">
  <use xlink:href="#glyph0-3" x="55.035156" y="119.50293"/>
</g>
<path style="fill:none;stroke-width:1.2;stroke-linecap:butt;stroke-linejoin:miter;stroke:rgb(0%,0%,100%);stroke-opacity:1;stroke-miterlimit:10;" d="M 214.917969 94.566406 L 220.765625 106.457031 "/>
<path style="fill:none;stroke-width:1.2;stroke-linecap:butt;stroke-linejoin:miter;stroke:rgb(0%,0%,0%);stroke-opacity:1;stroke-miterlimit:10;" d="M 220.765625 106.457031 L 226.613281 118.351562 "/>
<path style=" stroke:none;fill-rule:nonzero;fill:rgb(100%,100%,100%);fill-opacity:1;" d="M 206.917969 88.066406 L 223.917969 88.066406 L 223.917969 101.066406 L 206.917969 101.066406 Z M 206.917969 88.066406 "/>
<g style="fill:rgb(0%,0%,100%);fill-opacity:1;">
  <use xlink:href="#glyph0-3" x="206.917969" y="97.967773"/>
  <use xlink:href="#glyph0-1" x="214.901367" y="97.967773"/>
</g>
<path style="fill:none;stroke-width:1.2;stroke-linecap:butt;stroke-linejoin:miter;stroke:rgb(0%,0%,0%);stroke-opacity:1;stroke-miterlimit:10;" d="M 226.613281 118.351562 L 219.238281 129.359375 "/>
<path style="fill:none;stroke-width:1.2;stroke-linecap:butt;stroke-linejoin:miter;stroke:rgb(0%,0%,100%);stroke-opacity:1;stroke-miterlimit:10;" d="M 219.238281 129.359375 L 211.863281 140.367188 "/>
<path style="fill:none;stroke-width:1.2;stroke-linecap:butt;stroke-linejoin:miter;stroke:rgb(0%,0%,0%);stroke-opacity:1;stroke-miterlimit:10;" d="M 230.316406 124.023438 L 224.417969 132.828125 "/>
<path style="fill:none;stroke-width:1.2;stroke-linecap:butt;stroke-linejoin:miter;stroke:rgb(0%,0%,100%);stroke-opacity:1;stroke-miterlimit:10;" d="M 224.417969 132.828125 L 218.519531 141.636719 "/>
<path style="fill:none;stroke-width:1.2;stroke-linecap:butt;stroke-linejoin:miter;stroke:rgb(0%,0%,0%);stroke-opacity:1;stroke-miterlimit:10;" d="M 253.054688 120.113281 L 226.613281 118.351562 "/>
<path style="fill:none;stroke-width:1.2;stroke-linecap:butt;stroke-linejoin:miter;stroke:rgb(0%,0%,100%);stroke-opacity:1;stroke-miterlimit:10;" d="M 211.863281 140.367188 L 217.710938 152.261719 "/>
<path style="fill:none;stroke-width:1.2;stroke-linecap:butt;stroke-linejoin:miter;stroke:rgb(0%,0%,0%);stroke-opacity:1;stroke-miterlimit:10;" d="M 217.710938 152.261719 L 223.554688 164.152344 "/>
<path style=" stroke:none;fill-rule:nonzero;fill:rgb(100%,100%,100%);fill-opacity:1;" d="M 207.863281 133.867188 L 215.863281 133.867188 L 215.863281 146.867188 L 207.863281 146.867188 Z M 207.863281 133.867188 "/>
<g style="fill:rgb(0%,0%,100%);fill-opacity:1;">
  <use xlink:href="#glyph0-3" x="207.863281" y="143.768555"/>
</g>
<path style="fill:none;stroke-width:1.2;stroke-linecap:butt;stroke-linejoin:miter;stroke:rgb(0%,0%,0%);stroke-opacity:1;stroke-miterlimit:10;" d="M 223.554688 164.152344 L 250 165.917969 "/>
<path style="fill:none;stroke-width:1.2;stroke-linecap:butt;stroke-linejoin:miter;stroke:rgb(0%,0%,0%);stroke-opacity:1;stroke-miterlimit:10;" d="M 226.617188 158.105469 L 247.769531 159.519531 "/>
<path style="fill:none;stroke-width:1.2;stroke-linecap:butt;stroke-linejoin:miter;stroke:rgb(0%,0%,0%);stroke-opacity:1;stroke-miterlimit:10;" d="M 250 165.917969 L 264.75 143.898438 "/>
<path style="fill:none;stroke-width:1.2;stroke-linecap:butt;stroke-linejoin:miter;stroke:rgb(0%,0%,0%);stroke-opacity:1;stroke-miterlimit:10;" d="M 264.75 143.898438 L 253.054688 120.113281 "/>
<path style="fill:none;stroke-width:1.2;stroke-linecap:butt;stroke-linejoin:miter;stroke:rgb(0%,0%,0%);stroke-opacity:1;stroke-miterlimit:10;" d="M 257.984375 144.269531 L 248.628906 125.242188 "/>
<path style="fill:none;stroke-width:1.2;stroke-linecap:butt;stroke-linejoin:miter;stroke:rgb(0%,0%,0%);stroke-opacity:1;stroke-miterlimit:10;" d="M 156.652344 167.609375 L 160.421875 193.84375 "/>
</g>
</svg>

<svg xmlns="http://www.w3.org/2000/svg" xmlns:xlink="http://www.w3.org/1999/xlink" width="300pt" height="300pt" viewBox="0 0 300 300"><defs><symbol overflow="visible"><path d="M.547 1.938V-7.75h5.5v9.688zm.625-.61h4.266v-8.47H1.171zm0 0"/></symbol><symbol overflow="visible" id="a"><path d="M1.078-8.016h1.094v3.282H6.11v-3.282h1.077V0H6.11v-3.813H2.17V0H1.078zm0 0"/></symbol><symbol overflow="visible" id="b"><path d="M4.328-7.28c-.78 0-1.406.296-1.875.89-.46.585-.687 1.382-.687 2.39 0 1.012.226 1.813.687 2.406.47.586 1.094.875 1.875.875.79 0 1.414-.288 1.875-.874.457-.593.688-1.394.688-2.406 0-1.008-.23-1.805-.687-2.39-.46-.594-1.086-.89-1.875-.89zm0-.892c1.125 0 2.024.383 2.703 1.14C7.708-6.28 8.048-5.27 8.048-4c0 1.262-.34 2.273-1.016 3.03C6.353-.22 5.454.157 4.33.157S2.3-.22 1.625-.97c-.668-.75-1-1.757-1-3.03 0-1.27.332-2.28 1-3.03.676-.76 1.578-1.142 2.703-1.142zm0 0"/></symbol><symbol overflow="visible" id="c"><path d="M1.078-8.016h1.47l3.546 6.704v-6.704h1.062V0H5.688L2.124-6.703V0H1.078zm0 0"/></symbol></defs><g><path fill="#fff" d="M0 0h300v300H0z"/><path d="M125.617 232.746l6.988-11.262" stroke-width="1.2" stroke="#f00" stroke-miterlimit="10" fill="none"/><path d="M132.605 221.484l6.985-11.257" stroke-width="1.2" stroke="#000" stroke-miterlimit="10" fill="none"/><path d="M108.617 226.246h17v13h-17zm0 0" fill="#fff"/><g fill="#f00"><use xlink:href="#a" x="108.617" y="236.147"/><use xlink:href="#b" x="116.642" y="236.147"/></g><path d="M139.59 210.227l-24.602-9.852M139.59 210.227l19.754 17.668M160.422 193.844l-20.832 16.383M114.988 200.375l-3.773-26.23M111.215 174.145l20.832-16.383M132.047 157.762l-1.887-13.117" stroke-width="1.2" stroke="#000" stroke-miterlimit="10" fill="none"/><path d="M130.16 144.645l-1.887-13.118" stroke-width="1.2" stroke="#00f" stroke-miterlimit="10" fill="none"/><path d="M132.047 157.762l24.605 9.847" stroke-width="1.2" stroke="#000" stroke-miterlimit="10" fill="none"/><path d="M128.273 131.527l9.504-9.234" stroke-width="1.2" stroke="#00f" stroke-miterlimit="10" fill="none"/><path d="M137.777 122.293l9.504-9.238M104.836 119.16l11.72 6.184" stroke-width="1.2" stroke="#000" stroke-miterlimit="10" fill="none"/><path d="M116.555 125.344l11.718 6.183" stroke-width="1.2" stroke="#00f" stroke-miterlimit="10" fill="none"/><path d="M124.273 125.027h8v13h-8zm0 0" fill="#fff"/><use xlink:href="#c" x="124.273" y="134.929" fill="#00f"/><path d="M147.28 113.055l13.224.882" stroke-width="1.2" stroke="#000" stroke-miterlimit="10" fill="none"/><path d="M160.504 113.938l13.223.882" stroke-width="1.2" stroke="#00f" stroke-miterlimit="10" fill="none"/><path d="M150.34 107.012l10.578.703" stroke-width="1.2" stroke="#000" stroke-miterlimit="10" fill="none"/><path d="M160.918 107.715l10.578.707" stroke-width="1.2" stroke="#00f" stroke-miterlimit="10" fill="none"/><path d="M135.586 89.273l11.695 23.782" stroke-width="1.2" stroke="#000" stroke-miterlimit="10" fill="none"/><path d="M173.727 114.82l7.375-11.007" stroke-width="1.2" stroke="#00f" stroke-miterlimit="10" fill="none"/><path d="M181.102 103.813l7.375-11.012" stroke-width="1.2" stroke="#000" stroke-miterlimit="10" fill="none"/><path d="M169.727 108.32h8v13h-8zm0 0" fill="#fff"/><use xlink:href="#c" x="169.727" y="118.222" fill="#00f"/><path d="M188.477 92.8l-5.848-11.89" stroke-width="1.2" stroke="#000" stroke-miterlimit="10" fill="none"/><path d="M182.63 80.91l-5.85-11.89" stroke-width="1.2" stroke="#00f" stroke-miterlimit="10" fill="none"/><path d="M181.71 93.176l-4.68-9.516" stroke-width="1.2" stroke="#000" stroke-miterlimit="10" fill="none"/><path d="M177.03 83.66l-4.675-9.512" stroke-width="1.2" stroke="#00f" stroke-miterlimit="10" fill="none"/><path d="M188.477 92.8l13.218.884" stroke-width="1.2" stroke="#000" stroke-miterlimit="10" fill="none"/><path d="M201.695 93.684l13.223.882M176.78 69.02l-13.22-.883" stroke-width="1.2" stroke="#00f" stroke-miterlimit="10" fill="none"/><path d="M163.56 68.137l-13.224-.883" stroke-width="1.2" stroke="#000" stroke-miterlimit="10" fill="none"/><path d="M172.78 62.52h8v13h-8zm0 0" fill="#fff"/><use xlink:href="#c" x="172.781" y="72.421" fill="#00f"/><path d="M150.336 67.254l-14.75 22.02M154.043 72.926l-11.8 17.617M135.586 89.273l-26.23 3.774M109.355 93.047l-4.52 26.113M115.047 96.72l-3.613 20.893M104.836 119.16L81.05 130.852M77.94 130.645l-.88 13.222" stroke-width="1.2" stroke="#000" stroke-miterlimit="10" fill="none"/><path d="M77.06 143.867l-.884 13.223" stroke-width="1.2" stroke="#f00" stroke-miterlimit="10" fill="none"/><path d="M84.164 131.063l-.883 13.218" stroke-width="1.2" stroke="#000" stroke-miterlimit="10" fill="none"/><path d="M83.28 144.28l-.882 13.224" stroke-width="1.2" stroke="#f00" stroke-miterlimit="10" fill="none"/><path d="M81.05 130.852l-11.007-7.375" stroke-width="1.2" stroke="#000" stroke-miterlimit="10" fill="none"/><path d="M70.043 123.477l-11.008-7.375" stroke-width="1.2" stroke="#00f" stroke-miterlimit="10" fill="none"/><path d="M75.29 150.797h9v13h-9zm0 0" fill="#fff"/><use xlink:href="#b" x="75.289" y="160.698" fill="#f00"/><path d="M59.035 116.102L47.14 121.95" stroke-width="1.2" stroke="#00f" stroke-miterlimit="10" fill="none"/><path d="M47.14 121.95l-11.89 5.847" stroke-width="1.2" stroke="#000" stroke-miterlimit="10" fill="none"/><path d="M59.035 116.102l.88-13.22" stroke-width="1.2" stroke="#00f" stroke-miterlimit="10" fill="none"/><path d="M59.914 102.883l.883-13.223" stroke-width="1.2" stroke="#000" stroke-miterlimit="10" fill="none"/><path d="M55.035 109.602h8v13h-8zm0 0" fill="#fff"/><use xlink:href="#c" x="55.035" y="119.503" fill="#00f"/><path d="M214.918 94.566l5.848 11.89" stroke-width="1.2" stroke="#00f" stroke-miterlimit="10" fill="none"/><path d="M220.766 106.457l5.847 11.895" stroke-width="1.2" stroke="#000" stroke-miterlimit="10" fill="none"/><path d="M206.918 88.066h17v13h-17zm0 0" fill="#fff"/><g fill="#00f"><use xlink:href="#c" x="206.918" y="97.968"/><use xlink:href="#a" x="214.901" y="97.968"/></g><path d="M226.613 118.352l-7.375 11.007" stroke-width="1.2" stroke="#000" stroke-miterlimit="10" fill="none"/><path d="M219.238 129.36l-7.375 11.007" stroke-width="1.2" stroke="#00f" stroke-miterlimit="10" fill="none"/><path d="M230.316 124.023l-5.898 8.805" stroke-width="1.2" stroke="#000" stroke-miterlimit="10" fill="none"/><path d="M224.418 132.828l-5.898 8.81" stroke-width="1.2" stroke="#00f" stroke-miterlimit="10" fill="none"/><path d="M253.055 120.113l-26.442-1.76" stroke-width="1.2" stroke="#000" stroke-miterlimit="10" fill="none"/><path d="M211.863 140.367l5.848 11.895" stroke-width="1.2" stroke="#00f" stroke-miterlimit="10" fill="none"/><path d="M217.71 152.262l5.845 11.89" stroke-width="1.2" stroke="#000" stroke-miterlimit="10" fill="none"/><path d="M207.863 133.867h8v13h-8zm0 0" fill="#fff"/><use xlink:href="#c" x="207.863" y="143.769" fill="#00f"/><path d="M223.555 164.152L250 165.918M226.617 158.105l21.153 1.415M250 165.918l14.75-22.02M264.75 143.898l-11.695-23.785M257.984 144.27l-9.355-19.028M156.652 167.61l3.77 26.234" stroke-width="1.2" stroke="#000" stroke-miterlimit="10" fill="none"/></g></svg>
